X: 36213
T: Scudding Through The Whins
R: reel
M: 4/4
K: Gmajor
D|:(3GGG Bddd BG|EEAG FGAF|(3GGG Bdde ge|1 dBAd EGED:|2 dBAd FGG2||
(3ggg bgag bg|dgbg ageg|ggbg efge|dBAd BGG2|
(3ggg bgag bg|dgbg agef|gage dege|dBAd BGED||

